static/images/icon-4-4.svg

<svg height="86" viewBox="0 0 86 86" width="86" xmlns="http://www.w3.org/2000/svg"><g fill="none" fill-rule="evenodd"><circle cx="43" cy="43" fill="#02afde" r="43"/><path d="m59.6466413 41.7542522c-1.4081711 0-2.5539266-1.1203187-2.5539266-2.4974015 0-1.3770045 1.1456755-2.4974015 2.5539266-2.4974015 1.4081711 0 2.5540067 1.1203187 2.5540067 2.4974015s-1.1458356 2.4974015-2.5540067 2.4974015m-10.7234009 10.486142c-1.4082512 0-2.5540067-1.1203187-2.5540067-2.4974015 0-1.3771612 1.1456755-2.4974798 2.5540067-2.4974798 1.4081711 0 2.5538466 1.1203186 2.5538466 2.4974798-.0000801 1.3770828-1.1456755 2.4974015-2.5538466 2.4974015m-10.8464808-10.486142c-1.4081711 0-2.5539266-1.1203187-2.5539266-2.4974015 0-1.3770045 1.1456755-2.4974015 2.5539266-2.4974015 1.4082512 0 2.5539267 1.1203187 2.5539267 2.4974015s-1.1456755 2.4974015-2.5539267 2.4974015m-10.723481 10.486142c-1.4082511 0-2.5539266-1.1203187-2.5539266-2.4973232 0-1.3770828 1.1456755-2.4974015 2.5539266-2.4974015 1.4082512 0 2.5539267 1.1203187 2.5539267 2.4974015 0 1.3770045-1.1455955 2.4973232-2.5539267 2.4973232m32.2933627-17.2403942c2.4004973 0 4.3533587 1.9094045 4.3533587 4.2567724 0 2.3472896-1.9527813 4.256929-4.3532786 4.256929-.8751721 0-1.6902858-.2548065-2.3735911-.6912038l-4.7034595 4.5992813c.4463546.6681036.7068482 1.4651766.7068482 2.3211355 0 2.3472896-1.9528614 4.2568507-4.3531985 4.2568507-2.4004973 0-4.3532786-1.9095611-4.3532786-4.2568507 0-.8247149.2418354-1.5949291.6587213-2.2478415l-4.777932-4.6728102c-.6833054.4366322-1.4985792.691517-2.3739915.691517-.8754124 0-1.6907662-.2548848-2.3741516-.691517l-4.7032193 4.5992029c.4464346.6682603.7070884 1.4654899.7070884 2.3216054 0 2.3473679-1.9527813 4.256929-4.3532786 4.256929-2.4004172 0-4.3532786-1.9095611-4.3532786-4.256929s1.9528614-4.2570073 4.3532786-4.2570073c.8753323 0 1.6904459.2548065 2.3736712.6912038l4.7032994-4.599203c-.4463546-.6682602-.7068483-1.4651766-.7068483-2.3211355 0-2.3472896 1.9528615-4.256929 4.3532786-4.256929 2.4004172 0 4.3532786 1.9096394 4.3532786 4.256929 0 .8559589-.2605737 1.6531102-.7070083 2.3212921l4.7516665 4.6472043c.6981998-.4661534 1.5412606-.7392834 2.4484639-.7392834.8755725 0 1.6907663.2548848 2.3741516.691517l4.7032994-4.5992029c-.4464346-.668182-.7070884-1.4654116-.7070884-2.3215271 0-2.3472896 1.9527813-4.256929 4.3531985-4.256929zm-23.7632172 10.8089804c.351302-.3435268.9208966-.3435268 1.2723588 0 .3513821.3436051.3513821.9006714.0000801 1.2441982l-1.8301019 1.7895969c-.1756911.1718025-.4059953.2577038-.6362195.2577038-.2302241 0-.4604483-.085823-.6361394-.2577038-.3514622-.3435268-.3514622-.9005931-.00008-1.2441982zm14.5964039-2.3291305c-.2302242 0-.4604484-.0859013-.6362195-.2576255-.3513821-.3435268-.3513821-.9005931 0-1.2441982l1.8301019-1.7895969c.3515423-.3436051.9209767-.3436051 1.2724389-.0000783.3513021.3436051.3513021.9005931 0 1.2441199l-1.8301819 1.7896752c-.1756911.1717242-.4058352.2577038-.6361394.2577038z" fill="#fff"/></g></svg>

<?xml version="1.0" encoding="UTF-8"?>
<svg width="86px" height="86px" viewBox="0 0 86 86" version="1.1" xmlns="http://www.w3.org/2000/svg" xmlns:xlink="http://www.w3.org/1999/xlink">
    <!-- Generator: sketchtool 46.2 (44496) - http://www.bohemiancoding.com/sketch -->
    <title>210D024D-A241-426F-A050-38185E67709B</title>
    <desc>Created with sketchtool.</desc>
    <defs></defs>
    <g id="Page-1" stroke="none" stroke-width="1" fill="none" fill-rule="evenodd">
        <g id="icons" transform="translate(-1031.000000, -587.000000)">
            <g id="icon4" transform="translate(1031.000000, 587.000000)">
                <g>
                    <g>
                        <circle id="Oval-4-Copy" fill="#02AFDE" cx="43" cy="43" r="43"></circle>
                        <path d="M59.6466413,41.7542522 C58.2384702,41.7542522 57.0927147,40.6339335 57.0927147,39.2568507 C57.0927147,37.8798462 58.2383902,36.7594492 59.6466413,36.7594492 C61.0548124,36.7594492 62.200648,37.8797679 62.200648,39.2568507 C62.200648,40.6339335 61.0548124,41.7542522 59.6466413,41.7542522 M48.9232404,52.2403942 C47.5149892,52.2403942 46.3692337,51.1200755 46.3692337,49.7429927 C46.3692337,48.3658315 47.5149092,47.2455129 48.9232404,47.2455129 C50.3314115,47.2455129 51.477087,48.3658315 51.477087,49.7429927 C51.4770069,51.1200755 50.3314115,52.2403942 48.9232404,52.2403942 M38.0767596,41.7542522 C36.6685885,41.7542522 35.522833,40.6339335 35.522833,39.2568507 C35.522833,37.8798462 36.6685085,36.7594492 38.0767596,36.7594492 C39.4850108,36.7594492 40.6306863,37.8797679 40.6306863,39.2568507 C40.6306863,40.6339335 39.4850108,41.7542522 38.0767596,41.7542522 M27.3532786,52.2403942 C25.9450275,52.2403942 24.799352,51.1200755 24.799352,49.743071 C24.799352,48.3659882 25.9450275,47.2456695 27.3532786,47.2456695 C28.7615298,47.2456695 29.9072053,48.3659882 29.9072053,49.743071 C29.9072053,51.1200755 28.7616098,52.2403942 27.3532786,52.2403942 M59.6466413,35 C62.0471386,35 64,36.9094045 64,39.2567724 C64,41.604062 62.0472187,43.5137014 59.6467214,43.5137014 C58.7715493,43.5137014 57.9564356,43.2588949 57.2731303,42.8224976 L52.5696708,47.4217789 C53.0160254,48.0898825 53.276519,48.8869555 53.276519,49.7429144 C53.276519,52.090204 51.3236576,53.9997651 48.9233205,53.9997651 C46.5228232,53.9997651 44.5700419,52.090204 44.5700419,49.7429144 C44.5700419,48.9181995 44.8118773,48.1479853 45.2287632,47.4950729 L40.4508312,42.8222627 C39.7675258,43.2588949 38.952252,43.5137797 38.0768397,43.5137797 C37.2014273,43.5137797 36.3860735,43.2588949 35.7026881,42.8222627 L30.9994688,47.4214656 C31.4459034,48.0897259 31.7065572,48.8869555 31.7065572,49.743071 C31.7065572,52.0904389 29.7537759,54 27.3532786,54 C24.9528614,54 23,52.0904389 23,49.743071 C23,47.3957031 24.9528614,45.4860637 27.3532786,45.4860637 C28.2286109,45.4860637 29.0437245,45.7408702 29.7269498,46.1772675 L34.4302492,41.5780645 C33.9838946,40.9098043 33.7234009,40.1128879 33.7234009,39.256929 C33.7234009,36.9096394 35.6762624,35 38.0766795,35 C40.4770967,35 42.4299581,36.9096394 42.4299581,39.256929 C42.4299581,40.1128879 42.1693844,40.9100392 41.7229498,41.5782211 L46.4746163,46.2254254 C47.1728161,45.759272 48.0158769,45.486142 48.9230802,45.486142 C49.7986527,45.486142 50.6138465,45.7410268 51.2972318,46.177659 L56.0005312,41.5784561 C55.5540966,40.9102741 55.2934428,40.1130445 55.2934428,39.256929 C55.2934428,36.9096394 57.2462241,35 59.6466413,35 Z M35.8834241,45.8089804 C36.2347261,45.4654536 36.8043207,45.4654536 37.1557829,45.8089804 C37.507165,46.1525855 37.507165,46.7096518 37.155863,47.0531786 L35.3257611,48.8427755 C35.15007,49.014578 34.9197658,49.1004793 34.6895416,49.1004793 C34.4593175,49.1004793 34.2290933,49.0146563 34.0534022,48.8427755 C33.70194,48.4992487 33.70194,47.9421824 34.0533222,47.5985773 L35.8834241,45.8089804 Z M50.479828,43.4798499 C50.2496038,43.4798499 50.0193796,43.3939486 49.8436085,43.2222244 C49.4922264,42.8786976 49.4922264,42.3216313 49.8436085,41.9780262 L51.6737104,40.1884293 C52.0252527,39.8448242 52.5946871,39.8448242 52.9461493,40.188351 C53.2974514,40.5319561 53.2974514,41.0889441 52.9461493,41.4324709 L51.1159674,43.2221461 C50.9402763,43.3938703 50.7101322,43.4798499 50.479828,43.4798499 Z" id="Combined-Shape" fill="#FFFFFF"></path>
                    </g>
                </g>
            </g>
        </g>
    </g>
</svg>
